X: 518
T:McHugh's reel
M:4/4
L:1/8
Q:210
R:Reel
D:Cathal McConnell's 'Lough Erne's Shore'
N:Posted to the woodenflute mailing list May 2002
Z:Andrew Pickering
K:G
B2 BA BdeB|dBAG FD D2|B2 BA BdeB|dBAF E3 A|
B2 BA BdeB|dBAG FD D2|B2 BA BdeB|dBAF E4||
ed (3Bcd efge|fdad fd d2|ed (3Bcd efge|fedf e3 f|
ed (3Bcd efge|fdad fd df|g3 e f3 d|edBd e4||

